X: 43
T: Bear Dance Song (c)
C: Anon.
%%abc-version 2.0
%%abcx-abcm2ps-target-version 5.9.1 (29 Sep 2008)
%%abc-creator hum2abc beta
%%abcx-conversion-date 2020/08/10 20:56:09
%%abc-copyright Electronic Copyright 2000 David Huron
%%abc-edited-by David Huron
%%abcx-initial-encoding-date August 28, 2000
%%humdrum-veritas 343426621
%%humdrum-veritas-data 3847446846
%%linebreak <none>
%%barnumbers 0
L: 1/8
M: 2/4
Q: 1/4=88
K: G clef=bass
D> B, D z | 
D> B, D z | 
D> B, D z | 
B,> B, B,/ G,3/ | 
A,> A, G, C | 
B,> G, G,/ G,3/ | 
G,> G, G, z | 
G,> G, G,/ G,3/ | 
A,> G, G,/ G,3/ | 
G,> G, G, z | 
G,> G, G,/ G,3/ | 
A,> G, G,/ G,3/ | 
G,> G, G, z | 
G,> G, G,/ G,3/ | 
B,2A,2 | 
B,> B, B,/ G,3/ | 
A,> G, G, C | 
B,> G, G,/ G,3/ | 
G,> G, G, z | 
G,> G, G,/ G,3/ | 
A,> G, G,/ G,3/ | 
G,> G, G,/ G,3/ | 
D> G, D z |]  


